Newaita-dark/.DP/24/teamviewer-indicator-connected.svg

<svg xmlns="http://www.w3.org/2000/svg" xmlns:xlink="http://www.w3.org/1999/xlink" width="24px" height="24px" viewBox="0 0 24 24" version="1.1">
<g id="surface1">
<path style=" stroke:none;fill-rule:nonzero;fill:rgb(93.333334%,93.333334%,93.333334%);fill-opacity:1;" d="M 11.90625 3.164062 C 6.960938 3.164062 2.976562 7.148438 2.976562 12.09375 C 2.976562 17.042969 6.960938 21.023438 11.90625 21.023438 C 13.324219 21.023438 14.660156 20.699219 15.847656 20.117188 L 14.335938 18.605469 C 13.75 18.03125 13.742188 17.074219 14.320312 16.492188 C 14.902344 15.914062 15.859375 15.921875 16.433594 16.507812 L 17.601562 17.675781 L 20.082031 13.78125 L 20.078125 13.785156 C 20.242188 13.515625 20.488281 13.3125 20.773438 13.195312 C 20.8125 12.835938 20.835938 12.46875 20.835938 12.09375 C 20.835938 7.148438 16.855469 3.164062 11.90625 3.164062 Z M 14.375 8.617188 C 14.644531 8.617188 14.898438 8.726562 15.085938 8.914062 L 17.566406 11.398438 C 17.953125 11.78125 17.953125 12.40625 17.566406 12.792969 L 15.085938 15.273438 C 14.835938 15.53125 14.472656 15.632812 14.125 15.539062 C 13.78125 15.449219 13.515625 15.179688 13.421875 14.835938 C 13.335938 14.492188 13.4375 14.125 13.6875 13.875 L 14.488281 13.078125 C 14.453125 13.082031 14.421875 13.082031 14.390625 13.082031 L 9.328125 13.082031 L 10.125 13.875 C 10.382812 14.125 10.484375 14.492188 10.390625 14.835938 C 10.300781 15.179688 10.03125 15.449219 9.6875 15.539062 C 9.34375 15.632812 8.976562 15.53125 8.726562 15.273438 L 6.25 12.792969 C 5.859375 12.40625 5.859375 11.78125 6.25 11.398438 L 8.726562 8.914062 C 8.90625 8.734375 9.148438 8.625 9.40625 8.617188 C 9.8125 8.605469 10.1875 8.84375 10.34375 9.21875 C 10.507812 9.59375 10.417969 10.03125 10.125 10.3125 L 9.328125 11.109375 L 14.390625 11.109375 C 14.421875 11.109375 14.453125 11.109375 14.492188 11.109375 L 13.6875 10.3125 C 13.402344 10.03125 13.3125 9.605469 13.460938 9.234375 C 13.613281 8.859375 13.976562 8.617188 14.375 8.617188 Z M 15.382812 12.007812 C 15.390625 12.066406 15.390625 12.125 15.386719 12.179688 L 15.472656 12.09375 Z M 20.183594 15.46875 L 18.460938 18.171875 C 19.1875 17.390625 19.773438 16.476562 20.183594 15.46875 Z M 15.375 17.046875 C 15.25 17.046875 15.125 17.09375 15.023438 17.195312 C 14.828125 17.394531 14.828125 17.699219 15.027344 17.898438 C 15.03125 17.898438 15.03125 17.898438 15.03125 17.898438 L 16.742188 19.609375 C 17.054688 19.414062 17.351562 19.195312 17.632812 18.957031 C 17.523438 18.945312 17.417969 18.894531 17.335938 18.8125 L 15.726562 17.203125 C 15.726562 17.203125 15.726562 17.203125 15.722656 17.199219 C 15.625 17.101562 15.5 17.046875 15.375 17.046875 Z M 15.375 17.046875 "/>
<path style=" stroke:none;fill-rule:nonzero;fill:rgb(93.333334%,93.333334%,93.333334%);fill-opacity:1;" d="M 21.292969 13.578125 C 20.96875 13.59375 20.671875 13.765625 20.5 14.046875 L 17.6875 18.464844 L 16.078125 16.851562 C 15.828125 16.601562 15.464844 16.5 15.117188 16.585938 C 14.773438 16.679688 14.507812 16.945312 14.414062 17.289062 C 14.328125 17.636719 14.429688 18 14.679688 18.25 L 17.164062 20.734375 C 17.375 20.945312 17.671875 21.046875 17.96875 21.015625 C 18.265625 20.984375 18.53125 20.816406 18.695312 20.5625 L 22.167969 15.105469 C 22.371094 14.796875 22.382812 14.398438 22.199219 14.074219 C 22.015625 13.75 21.664062 13.558594 21.292969 13.578125 Z M 21.292969 13.578125 "/>
</g>
</svg>

<svg xmlns="http://www.w3.org/2000/svg" width="32" height="32" viewBox="0 0 24 24"><g fill="#bdbdbd"><path d="M11.906 3.164a8.912 8.912 0 0 0-8.93 8.93 8.913 8.913 0 0 0 8.93 8.933 8.926 8.926 0 0 0 3.942-.91l-1.512-1.512a1.492 1.492 0 0 1-.016-2.109 1.494 1.494 0 0 1 2.114.012l1.168 1.168 2.48-3.899-.004.008c.164-.27.41-.473.692-.59a8.913 8.913 0 0 0-8.863-10.031zm2.473 5.453c.266 0 .52.106.707.297l2.48 2.484a.983.983 0 0 1 0 1.395l-2.48 2.48a.987.987 0 1 1-1.395-1.394l.797-.8c-.035.003-.066.003-.101.003H9.332l.793.797a.987.987 0 1 1-1.398 1.394l-2.48-2.48a.99.99 0 0 1 0-1.395l2.48-2.484a.99.99 0 0 1 1.621.305.992.992 0 0 1-.223 1.093l-.793.793h5.055c.035 0 .07.004.101.008l-.797-.8a.983.983 0 0 1-.226-1.079.98.98 0 0 1 .914-.617zm1.008 3.39c.004.06.004.118 0 .173l.086-.086zm4.797 3.462l-1.72 2.703a9.047 9.047 0 0 0 1.72-2.703zm-4.809 1.578a.501.501 0 0 0-.352.148c-.199.2-.195.504.004.7l.004.003 1.711 1.715c.313-.203.61-.422.895-.656a.493.493 0 0 1-.297-.14l-1.613-1.614-.004-.004a.514.514 0 0 0-.348-.152zm0 0"/><path d="M21.293 13.578a.99.99 0 0 0-.793.469l-2.813 4.418-1.609-1.61a.97.97 0 0 0-.957-.265.985.985 0 0 0-.703.703.97.97 0 0 0 .266.957l2.48 2.48c.211.211.508.317.805.286a.996.996 0 0 0 .726-.453l3.473-5.458a.99.99 0 0 0-.875-1.527zm0 0"/></g></svg>
